images/Logo.svg

<svg width="114" height="30" viewBox="0 0 114 30" fill="none" xmlns="http://www.w3.org/2000/svg">
<path d="M48.64 6.81V3.39H33.13V24H48.64V20.58H36.88V15.21H47.53V11.79H36.88V6.81H48.64ZM63.9016 3.03V10.89C62.6716 9.15 60.8116 8.13 58.5316 8.13C54.4216 8.13 51.4216 11.49 51.4216 16.23C51.4216 21 54.4216 24.36 58.5316 24.36C60.8116 24.36 62.6716 23.34 63.9016 21.6V24H67.5616V3.03H63.9016ZM59.5216 21.24C56.9116 21.24 55.0516 19.14 55.0516 16.23C55.0516 13.32 56.9116 11.25 59.5216 11.25C62.1016 11.25 63.9016 13.32 63.9016 16.23C63.9016 19.14 62.1016 21.24 59.5216 21.24ZM82.1819 8.49V18.3C81.9419 19.95 80.3519 21.24 78.4319 21.24C76.5119 21.24 75.1619 19.74 75.1619 17.64V8.49H71.6219V18.36C71.6219 21.87 73.9919 24.36 77.3819 24.36C79.4219 24.36 81.2219 23.37 82.1819 21.93V24H85.8419V8.49H82.1819ZM95.0652 24H98.5152L105.085 8.49H101.185L96.7752 19.77L92.2752 8.49H88.4052L95.0652 24ZM109.489 6.15C110.629 6.15 111.559 5.16 111.559 4.05C111.559 2.94 110.629 1.98 109.489 1.98C108.319 1.98 107.389 2.94 107.389 4.05C107.389 5.16 108.319 6.15 109.489 6.15ZM107.629 24H111.289V8.49H107.629V24Z" fill="#0A033C"/>
<rect width="25" height="30" rx="5" fill="#FF6652"/>
<path d="M5.75345 8.12451C5.75297 8.12451 5.75242 8.12451 5.75194 8.12451C5.58169 8.12451 5.42157 8.19088 5.30066 8.31148C5.17842 8.43342 5.11108 8.59579 5.11108 8.76863V18.4271C5.11108 18.7813 5.40036 19.0702 5.756 19.0711C7.25527 19.0747 9.76716 19.3871 11.5 21.2005V11.0926C11.5 10.9726 11.4694 10.8598 11.4115 10.7665C9.98923 8.47603 7.25612 8.12803 5.75345 8.12451Z" fill="white"/>
<path d="M18.889 18.4272V8.76863C18.889 8.59579 18.8217 8.43342 18.6994 8.31148C18.5785 8.19088 18.4183 8.12451 18.2482 8.12451C18.2477 8.12451 18.2471 8.12451 18.2466 8.12451C16.744 8.12809 14.0109 8.47609 12.5886 10.7665C12.5307 10.8599 12.5001 10.9726 12.5001 11.0927V21.2006C14.233 19.3872 16.7449 19.0747 18.2441 19.0711C18.5997 19.0702 18.889 18.7813 18.889 18.4272Z" fill="white"/>
<path d="M20.3559 10.3521H19.8889V18.4273C19.8889 19.3316 19.1521 20.069 18.2464 20.0712C16.9747 20.0743 14.8779 20.3229 13.3928 21.7285C15.9612 21.0996 18.6687 21.5084 20.2118 21.86C20.4044 21.9039 20.6035 21.8586 20.7579 21.7355C20.9117 21.6128 20.9999 21.4294 20.9999 21.2325V10.9961C21 10.641 20.711 10.3521 20.3559 10.3521Z" fill="white"/>
<path d="M4.11103 18.4273V10.3521H3.644C3.28897 10.3521 3 10.641 3 10.9961V21.2323C3 21.4292 3.08824 21.6126 3.24206 21.7354C3.3963 21.8583 3.59521 21.9038 3.78818 21.8598C5.33122 21.5081 8.0388 21.0994 10.6071 21.7283C9.12208 20.3228 7.02523 20.0742 5.75352 20.0712C4.84788 20.069 4.11103 19.3316 4.11103 18.4273Z" fill="white"/>
</svg>

<svg xmlns="http://www.w3.org/2000/svg" width="114" height="30" fill="none"><path fill="#0A033C" d="M48.64 6.81V3.39H33.13V24h15.51v-3.42H36.88v-5.37h10.65v-3.42H36.88V6.81h11.76Zm15.262-3.78v7.86c-1.23-1.74-3.09-2.76-5.37-2.76-4.11 0-7.11 3.36-7.11 8.1 0 4.77 3 8.13 7.11 8.13 2.28 0 4.14-1.02 5.37-2.76V24h3.66V3.03h-3.66Zm-4.38 18.21c-2.61 0-4.47-2.1-4.47-5.01 0-2.91 1.86-4.98 4.47-4.98 2.58 0 4.38 2.07 4.38 4.98 0 2.91-1.8 5.01-4.38 5.01Zm22.66-12.75v9.81c-.24 1.65-1.83 2.94-3.75 2.94s-3.27-1.5-3.27-3.6V8.49h-3.54v9.87c0 3.51 2.37 6 5.76 6 2.04 0 3.84-.99 4.8-2.43V24h3.66V8.49h-3.66ZM95.065 24h3.45l6.57-15.51h-3.9l-4.41 11.28-4.5-11.28h-3.87L95.065 24ZM109.49 6.15c1.14 0 2.07-.99 2.07-2.1s-.93-2.07-2.07-2.07c-1.17 0-2.1.96-2.1 2.07 0 1.11.93 2.1 2.1 2.1ZM107.629 24h3.66V8.49h-3.66V24Z"/><rect width="25" height="30" fill="#FF6652" rx="5"/><path fill="#fff" d="M5.753 8.125h-.001a.641.641 0 0 0-.64.644v9.658c0 .354.288.643.644.644 1.5.004 4.011.316 5.744 2.13V11.093c0-.12-.03-.233-.088-.326-1.423-2.291-4.156-2.639-5.659-2.642ZM18.889 18.427V8.77a.641.641 0 0 0-.64-.644h-.002c-1.503.003-4.236.351-5.658 2.642a.617.617 0 0 0-.089.326V21.2c1.733-1.814 4.245-2.126 5.744-2.13.356 0 .645-.29.645-.644Z"/><path fill="#fff" d="M20.356 10.352h-.467v8.075c0 .905-.737 1.642-1.643 1.644-1.271.003-3.368.252-4.853 1.657 2.568-.628 5.276-.22 6.819.132a.643.643 0 0 0 .788-.627V10.996a.645.645 0 0 0-.644-.644ZM4.111 18.427v-8.075h-.467a.645.645 0 0 0-.644.644v10.236a.642.642 0 0 0 .788.628c1.543-.352 4.25-.76 6.82-.132-1.486-1.405-3.583-1.654-4.854-1.657a1.648 1.648 0 0 1-1.643-1.644Z"/></svg>
